X: 1088
T: Hâl-i Nez`imde Acırsın
C: Şevki Bey
O: Turkey
F: http://compmusic.upf.edu/node/140
N: hicaz--sarki--agiraksak--hali_nezimde--sevki_bey
N: makam= hicaz
N: form= sarki
N: usul= agiraksak = 9/4
M: 9/4
L: 1/16
K: C _7/8B ^f ^c 
Q: 1/4=69
%%MIDI tuningsystem comma53
z8 z2c4d2 c2B2 {c}B2A2 A12  | A2BA GFG2 G2e2 d2dc c3B cBBA A8 B2c2  | 
w:  Ha li  nez *  *  *  *  im  |  *  *  *  *  *  *  *  de  *  a *  cır *  *  *  *  *  sın   SAZ  | 
A8 z2d2 c2d2 e8 A3B c2d2 e2f2  | g2{a}g2 =f2e2 d2f2 e2d2 c2d2 e2{f}ed d6ef eddc  | 
w:  *  Sev *  di ğim  din  |  *  *  *  *  *  *  le  *  *  *  *  *  *  be *  ni   SAZ  | 
d8 z2d4=f2 e3d =c4 d2e2 f2g2 f2e2  | \
w:  *  A  be nim  *  *  rû  | 
a2g2 =f2e2 d2d4d2 c2d2 efed d6c2 f2ed  | 
w:  *  *  *  *  *  hi  re va *  *  *  *  *  nım   SAZ  | 
d8 z4 c2d2 c2B2 {c}B2A2 A8 B4  | B2c4BA A2B4G2 A8 e2=fg fed2 e2c2  | 
w:  *  Se ven  öl *  *  *  *  sün   |  *  mü  *  *  *  *  se ni   SAZ  | 
d8 z2d4=f2 e3d =c4 d2e2 f2g2 f2e2  | \
w:  *  A  be nim  *  *  rû  | 
a2g2 =f2e2 d2d4d2 c2d2 efed d6c2 f2ed  | 
w:  *  *  *  *  *  hi  re va *  *  *  *  *  nım   SAZ  | 
d8 z4 c2d2 c2B2 {c}B2A2 A8 B4  | B2c4BA A2B4G2 A8 a6g2 f2g2  | 
w:  *  Se ven  öl *  *  *  *  sün   |  *  mü  *  *  *  *  se ni   SAZ  | 
a8 z2g4a2 a8 a2{=b}ag g8  | g2{a}gf f^ef2 f2a4=c'2 =b2a2 g2f2 g2f=e e4 f2g2  | 
w:  *  Fir kat  ol maz  |  *  *  *  *  *  *  *  *  sa  di riğ  *  *  *  ey  | 
e8 e2d2 c2d2 e8 A3B c2d2 e2f2  | g2{a}g2 =f2e2 d2f2 e2d2 c2d2 e2{f}ed d6ef eddc  | 
w:  *  *  le *  me zem  ca  |  *  *  *  *  *  *  nü  *  *  *  *  *  *  te *  ni   SAZ  | 
d8 z2d4=f2 e3d =c4 d2e2 f2g2 f2e2  | \
w:  *  A  be nim  *  *  rû  | 
a2g2 =f2e2 d2d4d2 c2d2 efed d6c2 f2ed  | 
w:  *  *  *  *  *  hi  re va *  *  *  *  *  nım   SAZ  | 
d8 z4 c2d2 c2B2 {c}B2A2 A8 B4  | B2c4BA A2B4G2 A8 e2=fg fed2 e2c2  | 
w:  *  Se ven  öl *  *  *  *  sün   |  *  mü  *  *  *  *  se ni   SAZ  | 
d8 z2d4=f2 e3d =c4 d2e2 f2g2 f2e2  | \
w:  *  A  be nim  *  *  rû  | 
a2g2 =f2e2 d2d4d2 c2d2 efed d6c2 f2ed  | 
w:  *  *  *  *  *  hi  re va *  *  *  *  *  nım   SAZ  | 
d8 z4 c2d2 c2B2 {c}B2A2 A8 B4  | B2c4BA A2B4G2 A8 |
w:  *  Se ven  öl *  *  *  *  sün   |  *  mü  *  *  *  *  se ni    | 


